!!!OTL: Die Brombeerpflueckerin Es wollt ein Madel frueh aufstehn.
!!!ARE: Europa, Osteuropa, Ungarn, Kom. Tolnau, Nemetker
!!!YOR: 7, S. 107
!!    1935 aufgezeichnet
!!!SCT: Q0147O
!!!YEM: Copyright 1995, estate of Helmut Schaffrath.
**kern
*ICvox
*Ivox
*M4/4
*k[b-e-]
*g:
{4d
=1
4.g
8a
4b-
4cc
=2
4b-
4a
4g}
{12dd
12dd
12dd
=3
4aa
8dd
8ffn
8ee-
8dd
4cc
=4
2dd
4r}
{12dd
12dd
12dd
=5
4aa
8dd
8ffn
8ee-
8dd
4cc
=6
2dd
4r}
{12b
12b
12cc
=7
4dd
4dd
4dd
4dd
=8
4cc
4ee-
4dd}
{12cc
12cc
12cc
=9
4b-
4b-
4a
4dd
=10
4g
2dd}
{12cc
12cc
12cc
=11
4b-
4b-
4a
4dd
=12
2g
4r}
==
!!!AGN: Ballade, Verfuehrung, Schwangerschaft
!!!ONB: ESAC (Essen Associative Code) Database: BALLADE
!!!AMT: simple quadruple
!!!AIN: vox
!!!EED: Helmut Schaffrath
!!!EEV: 1.0
*-
